!!!COM: Palestrina, Giovanni Perluigi da
!!!OPR: Missa L'homme arme (1570)
!!!OMD: Credo
!!!OTL: Crucifixus
**kern	**kern	**kern	**kern
*Ibass	*Itenor	*Icalto	*Icant
!Bassus	!Tenor	!Altus	!Cantus
*clefF4	*clefGv2	*clefG2	*clefG2
*k[]	*k[]	*k[]	*k[]
*G:mix	*G:mix	*G:mix	*G:mix
*M4/2	*M4/2	*M4/2	*M4/2
=104	=104	=104	=104
0r	0r	0r	1dd
.	.	.	1dd
=105	=105	=105	=105
0r	0r	1r	1cc
.	.	1g	1b
=106	=106	=106	=106
0r	0r	1g	2r
.	.	.	1ee
.	.	1f	.
.	.	.	2dd
=107	=107	=107	=107
0r	0r	1e	2cc
.	.	.	2b
.	.	2r	4a
.	.	.	4b
.	.	[2a	4cc
.	.	.	4dd
=108	=108	=108	=108
0r	0r	2a]	2.ee
.	.	2g	.
.	.	.	8dd
.	.	.	8cc
.	.	2f	2dd
.	.	2e	2ee
=109	=109	=109	=109
0r	0r	4d	1.ff
.	.	4e	.
.	.	4f	.
.	.	4g	.
.	.	4a	.
.	.	4b	.
.	.	4cc	2ee
.	.	4a	.
=110	=110	=110	=110
0r	0r	2b	2dd
.	.	2.a	4cc
.	.	.	4b
.	.	.	4cc
.	.	4g	4b
.	.	[2g	4b
.	.	.	8a
.	.	.	8g
=111	=111	=111	=111
0r	1d	2g]	1a
.	.	2f#	.
.	2.e	1g	2g
.	.	.	2b
.	4e	.	.
=112	=112	=112	=112
0r	2e	1r	1cc
.	2f#	.	.
.	2.g	2r	1b
.	.	2g	.
.	4e	.	.
=113	=113	=113	=113
0r	4f	2.a	1r
.	4e	.	.
.	4d	.	.
.	4c	4a	.
.	1d	2a	2r
.	.	2b	2dd
=114	=114	=114	=114
0r	1c	4cc	2.ee
.	.	4b	.
.	.	4a	.
.	.	4g	4ee
.	1r	1a	2ee
.	.	.	2ff#
=115	=115	=115	=115
0r	0r	2g	4gg
.	.	.	4ff
.	.	2c	4ee
.	.	.	4dd
.	.	4c	1ee
.	.	4d	.
.	.	4e	.
.	.	4f	.
=116	=116	=116	=116
0r	2r	2g	2cc
.	2G	2g	2b
.	2.A	2e	2.cc
.	.	[2a	.
.	4A	.	4cc
=117	=117	=117	=117
0r	2A	2a]	2cc
.	2B	1g	2dd
.	2c	.	2ee
.	2d	2f	[2dd
=118	=118	=118	=118
0r	1A	1e	4dd]
.	.	.	8cc
.	.	.	8b
.	.	.	2cc#
.	1d	1d	1dd
=119	=119	=119	=119
0D	0f#	0a	0dd
=120	=120	=120	=120
1G	2g	2d	1b
.	2d	2.g	.
1E	2e	.	[1g
.	.	4f	.
.	[2c	[2e	.
=121	=121	=121	=121
1G	4c]	2e]	2g]
.	8B	.	.
.	8A	.	.
.	2B	1d	2g
2.F	1c	.	1a
.	.	[2c	.
4E	.	.	.
=122	=122	=122	=122
2D	1d	2c]	1f
2D	.	2B	.
1C	1G	1c	1e
*-	*-	*-	*-
!!!CDT: 1525/^1526/-1594/2/2
!!!OCY: Italia
!!!AGN: Mass (Tenor)
!!!AST: renaissance, vocal
!!!ASW: Popular Song
!!!PWK: Masses, Book 3
!!!RNB: Cadence finals: C,D
!!!YOR: Le Opere Complete, v. 6, p. 97
!!!YOO: Rome, Italy: Fratelli Scalera
!!!END: 1992//
!!!EED: John Miller
!!!YEC: Copyright 2000, John Miller
!!!YEN: United States of America
!!!YEM: Rights to all derivative electronic formats reserved.
!!!YEM: Refer to licensing agreement for further details.
!!!YEM: This file must be accompanied by the licensing agreement.
!!!YEM: A copy of the licensing agreement may be found at http://www.music-cog.ohio-state.edu/HumdrumDatabases/Palestrina/license.txt
!!!EMD: converted to Humdrum by Bret Aarden
